X: 2
T: Meenotogues Lad, The
M: 12/8
L: 1/8
R: slide
K: G Major
|: G2 e |\
G2 B d2 B cAc g2 e | d^cd GAB A2 B =cBA |
G2 B d2 B cAc g2 e | ded cBA G3 :|
|: def |\ 
g3 g2 e f2 f d2 d | ece g2 e d3 B2 d |
G2 B d2 B cAc g2 e | ded cBA G3 :|
